X:44
T:Fishers Hornpipe
C:Ray Legere
M:4/4
L:1/8
Q:1/8= 500
K:D
(3ABc|dAFD GBAG|FEDF GBAG|FDFD GBAG|FEDF EAcz|
ddAF GBAG|FDFD GBAG|A^GAB cABc|dfec d2c2|
ddAF GBAG|FDFD GBAG|FDFD GBAG|FEDF E2Ac|
ddAF GBAG|F/E/DE/F/G A/F/GA/B/d|c/B/AB/c/d efec|defd z2cd|
edcB ABcd|egfe d2cd|edcB AFAc|BA^GB A2DF|
G2GA BAGB|ABde =f^fab|a2c'2 d'baf|d2dd z2a2|
b2=c'2 ^c'2a2|b2c'2 d'2ea|b2=c'2 ^c'baf|edcB AFAF|
GFGA BcdB|AGFD F/E/DE/F/G|AGAB cdeg|fdAF D4|
